X:1
T:Title
%%score { ( 1 4 ) | ( 2 3 ) }
L:1/8
Q:1/4=100
M:4/4
K:D
V:1 treble nm="Grand Piano"
V:4 treble 
V:2 bass 
V:3 bass 
V:1
 A3 F [Fd][FA]FD | E>F E4 z2 | G3 E cB [DFA]>[DE] | F6 z2 | A3 F [Fd][FA]FA | B>c B4 z2 | %6
w: H.~C.~Blosser * * * * *||||||
 B3 G [ce][Bd] [Ac]>[B,^GB] | [CA]6 z2 | [DFA]3 [DGB] [DFA][DF][K:bass][A,CE][F,D] | %9
w: |||
 [A,CA]>[DB] [A,CA]4 z2 | [A,FA]3 [DGB] [DFA][DF][K:bass][A,CE][F,A,D] | %11
w: ||
 [A,A]2- [A,-EA-]2 [A,GA]2 z2 | [Fd]3 [Ge] [Fd][FA]FA | B>A G4 z2 | c3 B AG[CE][CA] | [DF]6 z2 | %16
w: |||||
 [Fd]3 [Ge] [Fd][FB]FA | [Bd]>c B4 z2 | c3 B Ac e>[EGc] | [DFd]6 z2 |] %20
w: ||||
V:2
 [D,F,D]3 [D,A,D] [D,A,][D,D][D,D][F,A,] | C2 z2 z4 | [A,CE]3 [A,C] [A,CA][A,CG][K:bass] A,,>A,, | %3
 [D,D]6 z2 | [D,F,D]3 [D,A,D] [D,A,][D,D][D,D][F,CD] | D2 z2 z4 | %6
 [E,G,E]3 [E,G,E] [E,A,][E,G,] [E,A,]>E, | A,6 z2 | D,3 D, F,A,C,D, | E,2 z2 z4 | D,3 D, F,A,C,D, | %11
 A,,2 C,2 E,2 z2 | [D,A,]3 [D,A,] [D,A,][D,D][D,D][F,D] | D>C [G,B,D]4 z2 | %14
 [A,E]3 [A,CG] [A,DF][K:bass][A,E][A,,A,][A,,A,] | [D,A,]6 z2 | %16
 [D,A,]3 [D,A,] [D,A,][D,D][D,D][F,D] | z z/ A/ [G,DG]4 z2 | %18
 [A,G]3 [A,DF][K:bass] [A,CE][A,E] [A,,CA]>A,, | D,6 z2 |] %20
V:3
 x8 | A,->[A,D] [A,C]4 z2 | x6[K:bass] x2 | x8 | x8 | [G,B,]->[G,B,E] [G,D]4 z2 | x8 | x8 | x8 | %9
 z z/ ^G,/ A,,4 z2 | x8 | x8 | x8 | G,2 z2 z4 | x5[K:bass] x3 | x8 | x8 | [G,D]2 z2 z4 | %18
 x4[K:bass] x4 | x8 |] %20
V:4
 x8 | x8 | x8 | x8 | x8 | x8 | x8 | x8 | x6[K:bass] x2 | x8 | x6[K:bass] x2 | C2 z2 z4 | x8 | x8 | %14
 x8 | x8 | x8 | x8 | x8 | x8 |] %20

